assets/Flatbread/Flat/flatbread_flat.svg

<svg width="32" height="32" viewBox="0 0 32 32" fill="none" xmlns="http://www.w3.org/2000/svg">
<path d="M2 15C2 7.8203 7.8203 2 15 2H17C24.1797 2 30 7.8203 30 15V17C30 24.1797 24.1797 30 17 30H15C7.8203 30 2 24.1797 2 17V15Z" fill="#F3AD61"/>
<path d="M6.87001 17.25L6.69001 17.07C6.45001 16.83 6.45001 16.43 6.69001 16.19L16.2 6.68C16.44 6.44 16.84 6.44 17.08 6.68L17.26 6.86C17.5 7.1 17.5 7.5 17.26 7.74L7.75001 17.25C7.50001 17.5 7.11001 17.5 6.87001 17.25Z" fill="#D3883E"/>
<path d="M8.10001 23.8999C7.81001 23.6099 7.81001 23.1299 8.10001 22.8399L22.84 8.09995C23.13 7.80995 23.61 7.80995 23.9 8.09995C24.19 8.38995 24.19 8.86995 23.9 9.15995L9.16001 23.8999C8.87001 24.1899 8.39001 24.1899 8.10001 23.8999Z" fill="#D3883E"/>
<path d="M14.75 25.1399L14.93 25.3199C15.17 25.5599 15.56 25.5599 15.81 25.3199L25.32 15.8099C25.56 15.5699 25.56 15.1699 25.32 14.9299L25.14 14.7499C24.9 14.5099 24.5 14.5099 24.26 14.7499L14.75 24.2599C14.51 24.4999 14.51 24.8999 14.75 25.1399Z" fill="#D3883E"/>
</svg>

<svg xmlns="http://www.w3.org/2000/svg" width="32" height="32" fill="none"><path fill="#F3AD61" d="M2 15C2 7.82 7.82 2 15 2h2c7.18 0 13 5.82 13 13v2c0 7.18-5.82 13-13 13h-2C7.82 30 2 24.18 2 17v-2Z"/><path fill="#D3883E" d="m6.87 17.25-.18-.18a.628.628 0 0 1 0-.88l9.51-9.51c.24-.24.64-.24.88 0l.18.18c.24.24.24.64 0 .88l-9.51 9.51a.61.61 0 0 1-.88 0ZM8.1 23.9a.754.754 0 0 1 0-1.06L22.84 8.1c.29-.29.77-.29 1.06 0 .29.29.29.77 0 1.06L9.16 23.9c-.29.29-.77.29-1.06 0ZM14.75 25.14l.18.18c.24.24.63.24.88 0l9.51-9.51c.24-.24.24-.64 0-.88l-.18-.18a.628.628 0 0 0-.88 0l-9.51 9.51c-.24.24-.24.64 0 .88Z"/></svg>
